src/scalable/apps/libreoffice.svg

<svg width="64" height="64" version="1.1" viewBox="0 0 16.933 16.933" xmlns="http://www.w3.org/2000/svg" xmlns:xlink="http://www.w3.org/1999/xlink">
 <path d="m3.4395 15.875c-0.87946 0-1.5875-0.70801-1.5875-1.5875v-10.054c0-0.87946 0.70801-1.5875 1.5875-1.5875v10.054c0 0.87946 0.70801 1.5875 1.5875 1.5875h8.4665c0 0.87946-0.70801 1.5875-1.5875 1.5875z" fill="#474747" stroke-width="0" style="paint-order:stroke fill markers"/>
 <path d="m5.027 1.0585c-0.87946 2e-6 -1.5875 0.70802-1.5875 1.5875v10.054c0 0.87946 0.70801 1.5875 1.5875 1.5875h8.4665c0.87946 0 1.5875-0.70802 1.5875-1.5875l-9.9e-5 -7.4082-4.2332-4.2333z" fill="#f9f9f9" stroke-linecap="round" stroke-linejoin="round" stroke-width="1.087" style="paint-order:stroke fill markers"/>
 <path d="m5.027 1.0585c-0.87946 2e-6 -1.5875 0.70802-1.5875 1.5875v10.054c0 0.87946 0.70801 1.5875 1.5875 1.5875h8.4665c0.87946 0 1.5875-0.70802 1.5875-1.5875l-9.9e-5 -7.4082-4.2332-4.2333z" fill="#f9f9f9" opacity=".9" stroke-linecap="round" stroke-linejoin="round" stroke-width="1.087" style="paint-order:stroke fill markers"/>
 <image transform="scale(1,-1)" x="3.4395" y="-14.287" width="11.377" height="12.964" image-rendering="optimizeQuality" preserveAspectRatio="none" xlink:href="data:image/png;base64,iVBORw0KGgoAAAANSUhEUgAAACsAAAAxCAYAAABDEFA9AAAACXBIWXMAAA7DAAAOwwHHb6hkAAAA GXRFWHRTb2Z0d2FyZQB3d3cuaW5rc2NhcGUub3Jnm+48GgAAAhBJREFUaIHtmb+O2kAQh38zu2Gt K5K8QRLpeh4hRWpKPyW1hUAUfgraa5KKC/njsyXj3ZkUMYhwR8LltIZiP8myixn521ntWPIQevI8 N1VV3YYQ3hlj3gCwGAgRUQCembchhJqIvgPYiMjGe1+XZekBwADAZDK5qev6ExF9YOYbADyUKACo KgAIEQVV7QC01trWOdc552Q8HstqtVLO89y0bfuRmd8OKfgc1us1ASCuqur2mkUPYQDvLy1xLgzg 9aUlzoUx4Kl/KYOe+peSZGORZGORZGORZGORZGORZGORZGORZGORZGORZGORZGORZGORZGORZP8X ItLD+zHXIqsAEELYi3ZdpwCQZZmWZSkA9Bp+d+6rqapKRMrMAkCbptGqqjoAAly4siKiIgIi2kuq alDV4L2X0Wj0sJvUAIAVEbmkcL/tAYAXkY6ZOyLy1tr72WzWHsbaPvAi7CoKwKvqtr9a7/2X5XJZ H8dbZt5ewBNEpCEEJSIJIXgArTGmMcbczefzH0/l2BDCoxUMwa6qIhKMMZ2qtsaYu6Iovp3KsQCe XEVMdu2JmUVEhIg6IvpcFMXPv+VZIvpqjBm8K/R9VL33Yq29XywW/9xhKyIb59yrAfz+fLG1aJpG nXMPx6f+ZI73vgYwiuz2iCzLNMuy7XQ6PbsbEfB7fN8PcwejLMuA/ut1LnTieQieJQoAvwCpRP7m /sAyBQAAAABJRU5ErkJggg== "/>
 <path transform="scale(.26458)" d="m21 8c-2.216 0-4 1.784-4 4v34c0 2.216 1.784 4 4 4h28c2.216 0 4-1.784 4-4v-24l-14-14zm0 1h17.586l13.414 13.414v23.586c0 1.662-1.338 3-3 3h-28c-1.662 0-3-1.338-3-3v-34c0-1.662 1.338-3 3-3z" fill="#ffffff" stroke-linecap="round" stroke-linejoin="round" stroke-width="9.9835" style="paint-order:stroke fill markers"/>
 <path d="m15.081 5.2915-4.2332-4.2332v2.6458c0 0.87946 0.70799 1.5875 1.5875 1.5875z" fill="#999999" stroke-linecap="round" stroke-linejoin="round" stroke-width=".39686" style="paint-order:stroke fill markers"/>
</svg>

<svg width="64" height="64" viewBox="0 0 16.933 16.933" xmlns="http://www.w3.org/2000/svg" xmlns:xlink="http://www.w3.org/1999/xlink"><path d="M3.44 15.875c-.88 0-1.588-.708-1.588-1.587V4.232c0-.879.708-1.587 1.587-1.587V12.7c0 .88.709 1.587 1.588 1.587h8.466c0 .88-.708 1.588-1.587 1.588z" fill="#474747" style="paint-order:stroke fill markers"/><path d="M5.027 1.058c-.88 0-1.587.709-1.587 1.588V12.7c0 .88.708 1.587 1.587 1.587h8.466c.88 0 1.588-.708 1.588-1.587V5.292l-4.233-4.234z" fill="#f9f9f9" style="paint-order:stroke fill markers"/><path d="M5.027 1.058c-.88 0-1.587.709-1.587 1.588V12.7c0 .88.708 1.587 1.587 1.587h8.466c.88 0 1.588-.708 1.588-1.587V5.292l-4.233-4.234z" fill="#f9f9f9" opacity=".9" style="paint-order:stroke fill markers"/><image transform="scale(1 -1)" x="3.439" y="-14.287" width="11.377" height="12.964" image-rendering="optimizeQuality" preserveAspectRatio="none" xlink:href="data:image/png;base64,iVBORw0KGgoAAAANSUhEUgAAACsAAAAxCAYAAABDEFA9AAAACXBIWXMAAA7DAAAOwwHHb6hkAAAA GXRFWHRTb2Z0d2FyZQB3d3cuaW5rc2NhcGUub3Jnm+48GgAAAhBJREFUaIHtmb+O2kAQh38zu2Gt K5K8QRLpeh4hRWpKPyW1hUAUfgraa5KKC/njsyXj3ZkUMYhwR8LltIZiP8myixn521ntWPIQevI8 N1VV3YYQ3hlj3gCwGAgRUQCembchhJqIvgPYiMjGe1+XZekBwADAZDK5qev6ExF9YOYbADyUKACo KgAIEQVV7QC01trWOdc552Q8HstqtVLO89y0bfuRmd8OKfgc1us1ASCuqur2mkUPYQDvLy1xLgzg 9aUlzoUx4Kl/KYOe+peSZGORZGORZGORZGORZGORZGORZGORZGORZGORZGORZGORZGORZGORZP8X ItLD+zHXIqsAEELYi3ZdpwCQZZmWZSkA9Bp+d+6rqapKRMrMAkCbptGqqjoAAly4siKiIgIi2kuq alDV4L2X0Wj0sJvUAIAVEbmkcL/tAYAXkY6ZOyLy1tr72WzWHsbaPvAi7CoKwKvqtr9a7/2X5XJZ H8dbZt5ewBNEpCEEJSIJIXgArTGmMcbczefzH0/l2BDCoxUMwa6qIhKMMZ2qtsaYu6Iovp3KsQCe XEVMdu2JmUVEhIg6IvpcFMXPv+VZIvpqjBm8K/R9VL33Yq29XywW/9xhKyIb59yrAfz+fLG1aJpG nXMPx6f+ZI73vgYwiuz2iCzLNMuy7XQ6PbsbEfB7fN8PcwejLMuA/ut1LnTieQieJQoAvwCpRP7m /sAyBQAAAABJRU5ErkJggg=="/><path transform="scale(.26458)" d="M21 8c-2.216 0-4 1.784-4 4v34c0 2.216 1.784 4 4 4h28c2.216 0 4-1.784 4-4V22L39 8zm0 1h17.586L52 22.414V46c0 1.662-1.338 3-3 3H21c-1.662 0-3-1.338-3-3V12c0-1.662 1.338-3 3-3z" fill="#fff" style="paint-order:stroke fill markers"/><path d="m15.081 5.292-4.233-4.234v2.646c0 .88.708 1.588 1.587 1.588z" fill="#999" style="paint-order:stroke fill markers"/></svg>
